svgs/zen_flip_clock.svg

<svg width="192" height="192" viewBox="0 0 192 192" fill="none" xmlns="http://www.w3.org/2000/svg">
<path d="M76 42H28C24.6863 42 22 44.6863 22 48V144C22 147.314 24.6863 150 28 150H76C79.3137 150 82 147.314 82 144V48C82 44.6863 79.3137 42 76 42Z" stroke="black" stroke-width="12" stroke-linejoin="round"/>
<path d="M111 150H159C162.314 150 165 147.314 165 144V96.5753C165 96.1926 165.037 95.8109 165.109 95.4352L169.618 72.1401C170.335 68.4378 167.498 65 163.727 65H106.273C102.502 65 99.6654 68.4377 100.382 72.1401L104.891 95.4352C104.963 95.8109 105 96.1926 105 96.5753V144C105 147.314 107.686 150 111 150Z" stroke="black" stroke-width="12" stroke-linejoin="round"/>
<path d="M105 65V47.3077C105 44.3763 107.686 42 111 42H159C162.314 42 165 44.3763 165 47.3077V65" stroke="black" stroke-width="12" stroke-linecap="round" stroke-linejoin="round"/>
<path d="M56 73V118" stroke="black" stroke-width="12" stroke-linecap="round"/>
<path d="M56 73C55 77.6274 48.6274 84 44 85" stroke="black" stroke-width="12" stroke-linecap="round"/>
</svg>

<svg xmlns="http://www.w3.org/2000/svg" width="192" height="192" fill="none" viewBox="0 0 192 192"><path stroke="#000" stroke-linejoin="round" stroke-width="12" d="M76 42H28a6 6 0 0 0-6 6v96a6 6 0 0 0 6 6h48a6 6 0 0 0 6-6V48a6 6 0 0 0-6-6Zm35 108h48a6 6 0 0 0 6-6V96.575q0-.575.109-1.14l4.509-23.295c.717-3.702-2.12-7.14-5.891-7.14h-57.454c-3.771 0-6.608 3.438-5.891 7.14l4.509 23.295q.108.566.109 1.14V144a6 6 0 0 0 6 6Z"/><path stroke="#000" stroke-linecap="round" stroke-linejoin="round" stroke-width="12" d="M105 65V47.308c0-2.932 2.686-5.308 6-5.308h48c3.314 0 6 2.376 6 5.308V65"/><path stroke="#000" stroke-linecap="round" stroke-width="12" d="M56 73v45m0-45c-1 4.627-7.373 11-12 12"/></svg>
